X:1
T:Getting Upstairs I Never Did See, (Such a)
T:Getting Upstairs I Never Did See, (Such a)
T:Trad.
T:For Getting Upstairs (Hinton) morris dance: A.(2A.2B).n
C:Trad arr. P J Headford
Z:P J Headford 2005
L:1/8
Q:1/4=160
M:4/4
K:G
V:1 treble nm="Accordion" snm="Acc."
V:1
|:"A""^.00""^A" dc |"G" B2 G2 D2 G2 |"D7" FGAB cedc |"G" B2 G2 D2 G2 |"D7" FGAF"G" G2 :| dc |: %6
"G""^B" B3 c d2 G2 | B2 c2 d4 |"C" e2"G" d2"G7" c2"G" B2 |"D" A2 B2"D7" cedc |"G" B2 G2 D2 G2 | %11
"D7" FGAB cedc |"G" B2 G2 D2 G2 |"D7" FGAF"G" G2 :| %14

